X: 16915
T: Hava Na Jigala
R: jig
M: 6/8
K: Dmajor
|:F2^A c^Ac|dcB c3|Bcc ^Acc|Gcc F2^A|
c^Ac dcB|c3 cde|f2c gfe|1 f2^A B^AG:|2 f3 f2g||
|:^ab^a ^a2g|g2f fef|gag g2f|f2e e3|
efg gfe|efg b2b|^a3 gfe|1 f3 f2g:|2 f2^A B^AG||

